X: 109
T:Polka de l'Aveyron
M:2/4
L:1/8
R:Polka
Z:Steve Mansfield
K:C
GA/B/c2 | B/c/d/B/c2 | d/e/f/d/ ec | dc B/A/G | GA/B/c2 |
B/c/d/B/c2 | d/e/f/d/ ec | dB c2 :: de/f/ gg | fe d>e |
fd ec | dc B/A/G | de/f/ gg | fe d>e | fd ec | dBc2 :|

